X:969
T:Carolan's Draught
O:england
C:O'Carolan, presumably.
R:
M:C
K:G
L:1/8
G>A Bc defd|g2fe d2BG|e2ce d2Bd|cd/c/ Bc AcBA|
G>A Bc defd|gfed ^cbag|gfed A2^c2|1 (d4 d)cBA:|2 (d4 d2) fg|
afga bagf|e/f/g fe edcB|eBef gBga|bagf efga|b2gb a2fa|
g2eg f>e d2|e>def gfed|(e4 e3)f|g>f ed cBAG|e2d2 d2Bd|
cdBd AdGd|F>G AF D4| EFGE FGAF|GABG ABcA|d2 g2 bagf|g8||


